X: 1
T: Hakketone Schottische
M: 4/4
L: 1/8
R: barndance
K: Gmaj
|:&quot;G&quot; B2 Bc d2 g2|&quot;D&quot; f2 c2 cB c2|A2 AB cdef |&quot;D/C/am&quot; e2 &quot;G&quot; dc Bc d2|
&quot;G&quot; B2 Bc d2 g2|&quot;D&quot; f2 c2 cB c2|a2 ag fdef |&quot;G&quot; g2 b2 g2 z2:|
|:&quot;G&quot; B2 d2 B2 d2|&quot;D&quot; cBcd &quot;C/am&quot; e2 c2 |&quot;D&quot; A2 c2 A2 c2|&quot;D/C/am&quot; e2 &quot;G&quot;dc d2 B2|
&quot;G&quot; B2 d2 B2 d2|&quot;D&quot; cBcd &quot;C/am&quot; e4    |&quot;D&quot; a2 ag fdef |&quot;G&quot; g2 b2 g2 z2:|
